X:1
T:Title
%%score ( 1 2 ) { ( 3 5 ) | 4 }
L:1/8
M:9/8
K:Ab
V:1 treble nm="Grand Piano, Piano"
V:2 treble 
V:3 bass nm="Grand Piano, Piano"
V:5 bass 
V:4 bass 
V:1
 z3 z3[Q:1/4=100] EA[DB] | [Ec]3 [Ec]3 [Ec][DB][CA] | [EB]3 [EB]3 z G[EB] | %3
w: 1.~I~ * will~|sing~ of~ my~ * Re|dee mer~ * His~|
 [Ed]3- [Ed]2 [Ed] dc[EB] |[M:3/4] [Ec]6 |[M:3/8] C-[CA][DB] |[M:9/8] [Ec]3 [Ec]3 [Ec][DB][CA] | %7
w: won * drous~ love~ * to~|me;~|On~ * the~|cru el~ cross~ * He~|
 [EB]3 [EB]3 z G[EA] | [EB]3- [EB]2 [EB] BA[EG] |[M:3/4] [EA]6 |[M:3/8] [CA][DB][Ec] | %11
w: suf fered~ * the~|curse~ * to~ set~ * me~|free.~|Sing,~ * oh,~|
[M:6/4] [Fd]6- [Fd]2 [Fd][DF][FA][Fd] | [Ec]3 [Ec]3- [Ec]3 [CE][EA][Ec] | [EB]6- [EB]2 [EB]BA[EB] | %14
w: sing~ * of~ my~ * Re|dee mer,~ * With~ * His~|blood~ * He~ pur * chased~|
 [Ec]6- [Ec]3 [CA][DB][Ec] | [Fd]6- [Fd]2 [Fd][DF][FA][Fd] | [Ec]3 [Ec]3- [Ec]3 [CE][EA][Ac] | %17
w: me;~ * On~ * the~|cross~ * He~ sealed~ * my~|par don,~ * Paid~ * the~|
 [ce]6- [ce]2 [Bd] [Ac]2 [GB] |[M:9/8] A8- A |] %19
w: debt~ * and~ made~ me~|free.~ *|
V:2
 z3 z3 .C3 | x9 | z3 z3 .E3 | z3 z3 .E3 |[M:3/4] x6 |[M:3/8] E z z |[M:9/8] x9 | z3 z3 .E3 | %8
 z3 z3 .E3 |[M:3/4] x6 |[M:3/8] x3 |[M:6/4] x12 | x12 | z6 z2 z .E3 | x12 | x12 | x12 | x12 | %18
[M:9/8] z2 E F2 F E3 |] %19
V:3
 z3 z3 A,2 A, | A,3 A,3 A,2 A, | G,3 G,3 G,2 G, | B,3- B,2 B, B,A,G, |[M:3/4] A,6 |[M:3/8] A,2 A, | %6
[M:9/8] A,3 A,3 A,2 A, | G,3 G,3 G,B,[K:treble]C | D3- D2 D DC[K:bass]B, |[M:3/4] C6 | %10
[M:3/8] A,2 A, |[M:6/4] A,2 A, A,2 A, A,2 A, A,2 A, | A,2 A, A,2 A, A,2 A,A,[K:treble]CE | %13
 D2 D D2 D D3 DC[K:bass]B, | A,2 A, A,2 A, A,3 A,2 A, | A,2 A, A,2 A, A,2 A, A,2 A, | %16
 A,2 A, A,2 A, A,2 .A,2[K:treble] CE | E2 E E2 E E2 E E2 D |[M:9/8] C2 C D2 D C3 |] %19
V:4
 z9 | z9 | E,3 E,3 E,2 E, | E,3- E,2 E, E,2 E, |[M:3/4] A,,6 |[M:3/8] A,,2 A,, | %6
[M:9/8] A,,3 A,,3 A,,2 A,, | E,3 E,3 E,2 E, | E,3- E,2 E, E,2 E, |[M:3/4] A,,6 |[M:3/8] z3 | %11
[M:6/4] D,2 D, D,2 D, D,2 D, D,2 D, | A,,2 A,, A,,2 A,, A,,2 A,, A,,2 A,, | %13
 E,2 E, E,2 E, E,3 E,F,G, | z12 | D,2 D, D,2 D, D,2 D, D,2 D, | A,,2 A,, A,,2 A,, A,,2 .A,,3 A, | %17
 E,2 E, E,2 E, E,2 E, E,2 E, |[M:9/8] [A,,A,]8- [A,,A,] |] %19
V:5
 x9 | x9 | x9 | x9 |[M:3/4] x6 |[M:3/8] x3 |[M:9/8] x9 | x8[K:treble] x | x8[K:bass] x | %9
[M:3/4] x6 |[M:3/8] x3 |[M:6/4] x12 | x10[K:treble] x2 | x11[K:bass] x | x12 | x12 | %16
 z6 z2 z .A,3[K:treble] | x12 |[M:9/8] x9 |] %19

